!!!!SEGMENT: pl-wnifc--13846--075_anonim--piesni-polskie-i-ruskie-ludu-galicyjskiego-75-nie-takie-to-czasy-byly.krn
!!!kernsource:
!!!cenid: 18xx:3297
!!!COM: Anonim
!!!COM-rismID: pe30004985
!!!CDT:
!!!CNT:
!!!GTL: Pieśni polskie i ruskie ludu galicyjskiego
!!!OTL: 75. Nie takie to czasy były
!!!PDT: 1833
!!!AGN:
!!!SMS-siglum: PL-Wnifc
!!!SMS-shelfmark: 13846
!!!SMS-shelfwork: 075 G
!!!NIFC-rismSourceID: 1001037247
!!!NIFC-islandoraID:
!!!URL-pdf-islandora:
!!!URL-scan:
!!!ONB-nifc:
!!!AIN: 1 piano 1 vox
!!!key: B-
**kern	**kern	**kern	**text
*part2	*part2	*part1	*part1
*staff3	*staff2	*staff1	*staff1
*I"FORTEPIAN.	*I"FORTEPIAN.	*I"GŁOS.	*
*Ipiano	*Ipiano	*Ivox	*
*ICklav	*ICklav	*ICvox	*
*IGacmp	*IGacmp	*IGsolo	*
*clefF4	*clefG2	*clefG2	*
*k[b-e-]	*k[b-e-]	*k[b-e-]	*
*B-:	*B-:	*B-:	*
*M3/4	*M3/4	*M3/4	*
=1-	=1-	=1-	=1-
*^	*	*	*
*ped	*	*	*	*
!LO:N:vis=2	!	!LO:TX:a:t=E. 22.:rj	!LO:TX:a:B:t=Alla Polacca:rj	!
8BB-/L	2.BB-\	8f/L	8f/	Nie
8F/	.	8b-/J	8b-/	ta-
8d/ 8B-/	.	8b-/L	8b-/	-kie
8F/	.	8b-/	8b-/	to
.	.	(>16qcc\LL	.	.
.	.	16qb-\JJ)	.	.
8d/ 8B-/	.	8a/	8a/	cza-
*Xped	*	*	*	*
8F/J	.	8b-/J	8b-/	-sy
=2	=2	=2	=2	=2
!LO:N:vis=2	!	!	!	!
8FF/L	2.FF\	(>8.bn\L	(>8.bn\L	by-
*ped	*	*	*	*
8F/	.	.	.	.
.	.	16cc\Jk)	16cc\Jk)	.
8e-/ 8A/	.	4cc\	4cc\	-ły,
8F/	.	.	.	.
8e-/ 8A/	.	4r	4r	.
*Xped	*	*	*	*
8F/J	.	.	.	.
!!LO:LB:g=original
=3	=3	=3	=3	=3
*ped	*	*	*	*
!LO:N:vis=2.	!	!	!	!
8AA/L	2.AAA\	8f/L	8f/	kie-
8F/	.	8cc/J	8cc\	-dy
8e-/ 8A/	.	8cc\L	8cc\	chło-
8F/	.	8cc\	8cc\	-piec
.	.	(<16qdd/LL	.	.
.	.	16qcc/JJ)	.	.
8e-/ 8A/	.	8bn\	8bn\	wdzię-
*Xped	*	*	*	*
8F/J	.	8cc\J	8cc\	-czny
=4	=4	=4	=4	=4
!LO:N:vis=2.	!	!	!	!
8BB-/L	2.BBB-\	(>8.cc#X\L	(>8.cc#X\L	mi-
8F/	.	.	.	.
.	.	16dd\Jk)	16dd\Jk)	.
8d/ 8B-/	.	4dd\	4dd\	-ły,
8F/	.	.	.	.
8d/ 8B-/	.	4r	4r	.
8F/J	.	.	.	.
!!LO:LB:g=original
=5	=5	=5	=5	=5
!LO:S:s=1:note:problem=note-level slur	!	!	!	!
(<8A-X/L	4BB-\	8b-\L	8b-\	u
8B-/J)	.	8dd\J	8dd\	nó-
!LO:S:s=1:note:problem=note-level slur	!	!	!	!
(<8A-/L	4BB-\	8dd\L	8dd\	-żek
8B-/J)	.	8dd\	8dd\	swo-
!LO:S:s=1:note:problem=note-level slur	!	!	!	!
(<8A-/L	4BB-\	8cc#X\	8cc#X\	-jej
8B-/J)	.	8dd\J	8dd\	ko-
=6	=6	=6	=6	=6
*tremolo	*	*	*	*
!LO:S:s=1:note:problem=note-level slur	!	!	!	!
(<8G/L	2BB-\	8.ff\L	(>8.ff\L	-chan-
8B-/	.	.	.	.
.	.	16een\Jk	16een\Jk)	.
8G/	.	4ee-X\	4ee-X\	-ki,
8B-/)J	.	.	.	.
*Xtremolo	*	*	*	*
!LO:S:s=1:note:problem=note-level slur	!	!	!	!
(<8G/L	4BB-\	4r	4r	.
8B-/J)	.	.	.	.
!!LO:PB:g=original
=7	=7	=7	=7	=7
!LO:S:s=1:note:problem=note-level slur	!	!	!	!
(<8F/L	4BB-\	(>8ee-\L 8e-\	8ee-\L	tra-
8An/J)	.	8cc\J)	8cc\J	-wił
*tremolo	*	*	*	*
!LO:S:s=1:note:problem=note-level slur	!	!	!	!
(<8F/L	2BB-\	4.b-/ 4.d/	4.b-\	wie-
8B-X/	.	.	.	.
8F/	.	.	.	.
8B-X/)J	.	8dd\	8dd\	-czo-
*Xtremolo	*	*	*	*
=8	=8	=8	=8	=8
(<8FF/L	4FF\	(>16cc\LL	(>16cc\LL	-ry,
.	.	16b-\JJ)	16b-\JJ)	.
8F/J)	.	(>16a\LL	(>16a\LL	po
.	.	16cc\JJ)	16cc\JJ)	.
(>4e-\ 4A\ 4F\	2ryy	(>4cc\	(>4cc\	-ran-
8d\ 8B-\)	.	8b-\)	8b-\)	-ki
8r	.	8r	8r	.
*v	*v	*	*	*
==	==	==	==
*-	*-	*-	*-
!!!system-decoration: <s1>{(s2,s3)}
!!!RDF**kern: > = above
!!!RDF**kern: < = below
!!!RDF**kern: | = vertical stroke
!!!ENC: Andrzej Kubiczek
!!!END: 2021-11-11
!!!YEC: Copyright 2022 Narodowy Instytut Fryderyka Chopina (https://polishscores.org)
!!!YEM: Licence CC BY 4.0 (https://creativecommons.org/licenses/by/4.0)
